src/images/icons/instagram.svg

<?xml version="1.0" encoding="utf-8"?>
<svg width="30px" height="30px" viewBox="0 0 30 30" version="1.1" xmlns:xlink="http://www.w3.org/1999/xlink" xmlns="http://www.w3.org/2000/svg">
  <defs>
    <filter id="filter_1">
      <feColorMatrix in="SourceGraphic" type="matrix" values="0 0 0 0 1 0 0 0 0 1 0 0 0 0 1 0 0 0 1 0" color-interpolation-filters="sRGB" />
    </filter>
  </defs>
  <g id="socialmysocialinstagram" fill-opacity="1" filter="url(#filter_1)">
    <path d="M-1809 -146L-1809 -146L-1809 -116L-1839 -116L-1839 -146L-1809 -146Z" id="socialmysocialinstagram" fill="none" stroke="none" />
    <path d="M15.001 3C11.742 3 11.333 3.01425 10.053 3.0725C8.7755 3.131 7.9035 3.33325 7.1405 3.63C6.35125 3.9365 5.68175 4.3465 5.01475 5.01375C4.34725 5.68075 3.93725 6.35025 3.62975 7.13925C3.33225 7.9025 3.12975 8.77475 3.07225 10.0518C3.015 11.3317 3 11.741 3 15C3 18.259 3.0145 18.6667 3.0725 19.9468C3.13125 21.2243 3.3335 22.0962 3.63 22.8592C3.93675 23.6485 4.34675 24.318 5.014 24.985C5.68075 25.6525 6.35025 26.0635 7.139 26.37C7.9025 26.6667 8.77475 26.869 10.052 26.9275C11.332 26.9858 11.7408 27 14.9995 27C18.2587 27 18.6665 26.9858 19.9465 26.9275C21.224 26.869 22.097 26.6667 22.8605 26.37C23.6495 26.0635 24.318 25.6525 24.9847 24.985C25.6523 24.318 26.0623 23.6485 26.3697 22.8595C26.6648 22.0962 26.8673 21.224 26.9272 19.947C26.9848 18.667 26.9998 18.259 26.9998 15C26.9998 11.741 26.9848 11.332 26.9272 10.052C26.8673 8.7745 26.6648 7.9025 26.3697 7.1395C26.0623 6.35025 25.6523 5.68075 24.9847 5.01375C24.3172 4.34625 23.6497 3.93625 22.8598 3.63C22.0948 3.33325 21.2222 3.131 19.9447 3.0725C18.6647 3.01425 18.2572 3 14.9973 3L15.001 3ZM13.9245 5.1625C14.244 5.162 14.6005 5.1625 15.001 5.1625C18.205 5.1625 18.5848 5.174 19.85 5.2315C21.02 5.285 21.655 5.4805 22.078 5.64475C22.638 5.86225 23.0373 6.12225 23.457 6.54225C23.877 6.96225 24.137 7.36225 24.355 7.92225C24.5193 8.34475 24.715 8.97975 24.7683 10.1497C24.8258 11.4147 24.8383 11.7947 24.8383 14.9972C24.8383 18.1997 24.8258 18.5798 24.7683 19.8447C24.7148 21.0147 24.5193 21.6497 24.355 22.0722C24.1375 22.6322 23.877 23.031 23.457 23.4508C23.037 23.8707 22.6383 24.1307 22.078 24.3482C21.6555 24.5133 21.02 24.7083 19.85 24.7617C18.585 24.8193 18.205 24.8317 15.001 24.8317C11.7968 24.8317 11.417 24.8193 10.152 24.7617C8.982 24.7077 8.347 24.5122 7.92375 24.348C7.36375 24.1305 6.96375 23.8705 6.54375 23.4505C6.12375 23.0305 5.86375 22.6315 5.64575 22.0712C5.4815 21.6487 5.28575 21.0138 5.2325 19.8438C5.175 18.5787 5.1635 18.1987 5.1635 14.9942C5.1635 11.7898 5.175 11.4117 5.2325 10.1467C5.286 8.97675 5.4815 8.34175 5.64575 7.91875C5.86325 7.35875 6.12375 6.95875 6.54375 6.53875C6.96375 6.11875 7.36375 5.85875 7.92375 5.64075C8.34675 5.47575 8.982 5.28075 10.152 5.227C11.259 5.177 11.688 5.162 13.9245 5.1595L13.9245 5.1625ZM21.4065 7.155C20.6115 7.155 19.9665 7.79925 19.9665 8.5945C19.9665 9.3895 20.6115 10.0345 21.4065 10.0345C22.2015 10.0345 22.8465 9.3895 22.8465 8.5945C22.8465 7.7995 22.2015 7.1545 21.4065 7.1545L21.4065 7.155ZM15.001 8.8375C11.5977 8.8375 8.8385 11.5968 8.8385 15C8.8385 18.4033 11.5977 21.1613 15.001 21.1613C18.4042 21.1613 21.1625 18.4033 21.1625 15C21.1625 11.5968 18.404 8.8375 15.0007 8.8375L15.001 8.8375ZM15.001 11C17.21 11 19.001 12.7908 19.001 15C19.001 17.209 17.21 19 15.001 19C12.7917 19 11.001 17.209 11.001 15C11.001 12.7908 12.7917 11 15.001 11L15.001 11Z" id="instagram" fill="#000000" fill-rule="evenodd" stroke="none" />
  </g>
</svg>

<svg xmlns="http://www.w3.org/2000/svg" width="30" height="30">
  <defs>
    <filter id="a">
      <feColorMatrix color-interpolation-filters="sRGB" in="SourceGraphic" values="0 0 0 0 1 0 0 0 0 1 0 0 0 0 1 0 0 0 1 0"/>
    </filter>
  </defs>
  <g filter="url(#a)">
    <path fill="none" d="M-1809-146v30h-30v-30h30Z"/>
    <path fill-rule="evenodd" d="M15.001 3c-3.259 0-3.668.014-4.948.072-1.278.059-2.15.261-2.913.558a5.876 5.876 0 0 0-2.125 1.384A5.89 5.89 0 0 0 3.63 7.139c-.298.763-.5 1.636-.558 2.913C3.015 11.332 3 11.74 3 15c0 3.259.014 3.667.072 4.947.06 1.277.261 2.15.558 2.912a5.88 5.88 0 0 0 1.384 2.126 5.876 5.876 0 0 0 2.125 1.385c.763.297 1.636.499 2.913.557 1.28.059 1.689.073 4.947.073 3.26 0 3.667-.014 4.947-.073 1.278-.058 2.151-.26 2.914-.557a5.87 5.87 0 0 0 2.125-1.385 5.888 5.888 0 0 0 1.385-2.125c.295-.764.497-1.636.557-2.913.058-1.28.073-1.688.073-4.947 0-3.259-.015-3.668-.073-4.948-.06-1.277-.262-2.15-.557-2.912a5.887 5.887 0 0 0-1.385-2.126A5.865 5.865 0 0 0 22.86 3.63c-.765-.297-1.638-.499-2.915-.558C18.665 3.014 18.257 3 14.997 3h.004Zm-1.076 2.162H15c3.204 0 3.584.012 4.849.07 1.17.053 1.805.248 2.228.413.56.217.96.477 1.379.897.42.42.68.82.898 1.38.164.423.36 1.058.413 2.228.058 1.265.07 1.645.07 4.847 0 3.203-.012 3.583-.07 4.848-.053 1.17-.249 1.805-.413 2.227-.218.56-.478.959-.898 1.379-.42.42-.819.68-1.379.897-.422.165-1.058.36-2.228.414-1.265.057-1.645.07-4.849.07s-3.584-.013-4.849-.07c-1.17-.054-1.805-.25-2.228-.414a3.717 3.717 0 0 1-1.38-.897 3.72 3.72 0 0 1-.898-1.38c-.165-.422-.36-1.057-.413-2.227-.058-1.265-.07-1.645-.07-4.85 0-3.204.012-3.582.07-4.847.053-1.17.248-1.805.413-2.228.217-.56.478-.96.898-1.38.42-.42.82-.68 1.38-.898.423-.165 1.058-.36 2.228-.414 1.107-.05 1.536-.065 3.773-.067v.002Zm7.482 1.993a1.44 1.44 0 1 0 0 2.88 1.44 1.44 0 0 0 0-2.88ZM15 8.838a6.163 6.163 0 1 0 .001 12.325 6.163 6.163 0 0 0-.001-12.325Zm0 2.162a4 4 0 1 1 0 8 4 4 0 0 1 0-8Z"/>
  </g>
</svg>
